src/svgs/palette.svg

<?xml version="1.0" encoding="UTF-8" standalone="no"?>
<!-- Created with Inkscape (http://www.inkscape.org/) -->

<svg
   xmlns:dc="http://purl.org/dc/elements/1.1/"
   xmlns:cc="http://creativecommons.org/ns#"
   xmlns:rdf="http://www.w3.org/1999/02/22-rdf-syntax-ns#"
   xmlns:svg="http://www.w3.org/2000/svg"
   xmlns="http://www.w3.org/2000/svg"
   xmlns:sodipodi="http://sodipodi.sourceforge.net/DTD/sodipodi-0.dtd"
   xmlns:inkscape="http://www.inkscape.org/namespaces/inkscape"
   width="20"
   height="20"
   id="svg5738"
   version="1.1"
   inkscape:version="0.91+devel+osxmenu r12911"
   sodipodi:docname="palette.svg"
   viewBox="0 0 20 20">
  <defs
     id="defs5740" />
  <sodipodi:namedview
     id="base"
     pagecolor="#ffffff"
     bordercolor="#666666"
     borderopacity="1.0"
     inkscape:pageopacity="0.0"
     inkscape:pageshadow="2"
     inkscape:zoom="16"
     inkscape:cx="6.625073"
     inkscape:cy="2.8849298"
     inkscape:document-units="px"
     inkscape:current-layer="layer1"
     showgrid="false"
     inkscape:window-width="1194"
     inkscape:window-height="750"
     inkscape:window-x="58"
     inkscape:window-y="0"
     inkscape:window-maximized="0"
     inkscape:snap-bbox="true"
     inkscape:snap-nodes="true"
     showguides="true"
     inkscape:guide-bbox="true"
     inkscape:bbox-paths="true"
     inkscape:bbox-nodes="true"
     inkscape:object-paths="true"
     inkscape:snap-intersection-paths="true"
     inkscape:object-nodes="true"
     inkscape:snap-smooth-nodes="true">
    <inkscape:grid
       type="xygrid"
       id="grid5746"
       empspacing="5"
       visible="true"
       enabled="true"
       snapvisiblegridlinesonly="true" />
  </sodipodi:namedview>
  <metadata
     id="metadata5743">
    <rdf:RDF>
      <cc:Work
         rdf:about="">
        <dc:format>image/svg+xml</dc:format>
        <dc:type
           rdf:resource="http://purl.org/dc/dcmitype/StillImage" />
        <dc:title />
      </cc:Work>
    </rdf:RDF>
  </metadata>
  <g
     inkscape:label="Layer 1"
     inkscape:groupmode="layer"
     id="layer1"
     transform="translate(0,-1032.3622)">
    <path
       style="opacity:1;fill:#000000;fill-opacity:1;stroke:none;stroke-width:1.49999988;stroke-linecap:round;stroke-linejoin:round;stroke-miterlimit:4;stroke-dasharray:none;stroke-dashoffset:0;stroke-opacity:1;marker:none"
       d="M 9.9980469 3.5 C 6.5485972 3.5 3.5 6.1997 3.5 10 C 3.5 13.3999 6.4639845 16.5 9.7949219 16.5 C 10.497071 16.5 11.082031 16.000016 11.082031 15.416016 C 11.082031 15.053816 10.87677 14.649884 10.539062 14.333984 C 10.011648 13.840584 9.9980469 13.25 9.9980469 13.25 C 9.9980469 12.4195 10.35677 12 11 12 L 13 12 C 14.459559 12 16.5 12.444003 16.5 9.9082031 C 16.5 7.2744031 14.33138 3.5 9.9980469 3.5 z M 10 5 C 10.55333 5 11 5.4467 11 6 C 11 6.5533 10.55333 7 10 7 C 9.4466702 7 9 6.5533 9 6 C 9 5.4467 9.4466702 5 10 5 z M 7 7 C 7.5533334 7 8 7.4468 8 8 C 8 8.5533 7.5533334 9 7 9 C 6.4466667 9 6 8.5533 6 8 C 6 7.4468 6.4466667 7 7 7 z M 13.056641 7 C 13.609974 7 14.056641 7.4467 14.056641 8 C 14.056641 8.5533 13.609974 9 13.056641 9 C 12.503308 9 12.056641 8.5533 12.056641 8 C 12.056641 7.4467 12.503308 7 13.056641 7 z "
       transform="translate(0,1032.3622)"
       id="path7095" />
  </g>
</svg>

<?xml version="1.0" encoding="UTF-8" standalone="yes"?>
<svg viewBox="0 0 20 20">
  <path d="M10,3.5c-3.4,0-6.5,2.7-6.5,6.5c0,3.4,3,6.5,6.3,6.5c0.7,0,1.3-0.5,1.3-1.1c0-0.4-0.2-0.8-0.5-1.1C10,13.8,10,13.2,10,13.2
	c0-0.8,0.4-1.2,1-1.2h2c1.5,0,3.5,0.4,3.5-2.1C16.5,7.3,14.3,3.5,10,3.5z M10,5c0.6,0,1,0.4,1,1s-0.4,1-1,1C9.4,7,9,6.6,9,6
	S9.4,5,10,5z M7,7c0.6,0,1,0.4,1,1c0,0.6-0.4,1-1,1S6,8.6,6,8C6,7.4,6.4,7,7,7z M13.1,7c0.6,0,1,0.4,1,1s-0.4,1-1,1
	c-0.6,0-1-0.4-1-1S12.5,7,13.1,7z"/>
</svg>
